images/logo/technomart-logo.svg

<svg width="220" height="50" viewBox="0 0 220 50" fill="none" xmlns="http://www.w3.org/2000/svg">
<rect width="220" height="50" fill="#EE3643"/>
<rect y="45" width="220" height="5" fill="#B52933"/>
<path fill-rule="evenodd" clip-rule="evenodd" d="M159.699 15.6585V30.4498H157.589V15.6585H153.838V14.0151H163.451V15.6585H159.699ZM151.576 24.3572C151.208 24.819 150.747 25.1477 150.192 25.3433C149.638 25.539 148.977 25.6368 148.211 25.6368C147.852 25.6368 147.446 25.6133 146.992 25.5664C146.539 25.5194 146.164 25.4646 145.867 25.402V30.4498H143.757V14.2498C144.351 14.0777 144.949 13.9564 145.55 13.8859C146.152 13.8155 146.805 13.7803 147.508 13.7803C148.446 13.7803 149.243 13.8781 149.899 14.0738C150.556 14.2694 151.087 14.5942 151.494 15.0481C151.9 15.502 152.197 16.1046 152.385 16.8559C152.572 17.6072 152.666 18.5385 152.666 19.6498C152.666 20.7924 152.576 21.7472 152.396 22.5142C152.217 23.2811 151.943 23.8955 151.576 24.3572ZM150.38 17.5368C150.263 16.9733 150.079 16.5272 149.829 16.1985C149.579 15.8698 149.263 15.639 148.88 15.5059C148.497 15.3729 148.039 15.3064 147.508 15.3064H145.867V23.9933H147.508C148.039 23.9933 148.497 23.9268 148.88 23.7938C149.263 23.6607 149.579 23.4298 149.829 23.1011C150.079 22.7724 150.263 22.3264 150.38 21.7629C150.497 21.1994 150.556 20.4951 150.556 19.6498C150.556 18.8046 150.497 18.1003 150.38 17.5368ZM138.482 26.2238H133.793L132.738 30.4498H130.628L134.613 14.0151H137.661L141.647 30.4498H139.537L138.482 26.2238ZM136.184 16.3629H136.09L134.145 24.5803H138.13L136.184 16.3629ZM126.056 18.2411H125.939L122.539 28.3368H120.429L117.03 18.2411H116.913L116.209 30.4498H114.099L115.037 14.0151H117.616L121.437 25.2846H121.531L125.353 14.0151H127.932L128.869 30.4498H126.759L126.056 18.2411ZM110.301 28.9238C109.864 29.5655 109.336 30.0194 108.719 30.2855C108.101 30.5516 107.394 30.6846 106.597 30.6846C105.8 30.6846 105.093 30.5516 104.475 30.2855C103.858 30.0194 103.33 29.5655 102.893 28.9238C102.455 28.282 102.123 27.4172 101.896 26.3294C101.67 25.2416 101.556 23.8759 101.556 22.2324C101.556 20.589 101.67 19.2233 101.896 18.1355C102.123 17.0477 102.455 16.1829 102.893 15.5411C103.33 14.8994 103.858 14.4455 104.475 14.1794C105.093 13.9133 105.8 13.7803 106.597 13.7803C107.394 13.7803 108.101 13.9133 108.719 14.1794C109.336 14.4455 109.864 14.8994 110.301 15.5411C110.739 16.1829 111.071 17.0477 111.298 18.1355C111.524 19.2233 111.638 20.589 111.638 22.2324C111.638 23.8759 111.524 25.2416 111.298 26.3294C111.071 27.4172 110.739 28.282 110.301 28.9238ZM109.281 18.7577C109.117 17.8498 108.902 17.1298 108.637 16.5977C108.371 16.0655 108.058 15.6977 107.699 15.4942C107.339 15.2907 106.972 15.189 106.597 15.189C106.222 15.189 105.855 15.2907 105.495 15.4942C105.136 15.6977 104.823 16.0655 104.557 16.5977C104.292 17.1298 104.077 17.8498 103.913 18.7577C103.748 19.6655 103.666 20.8238 103.666 22.2324C103.666 23.6411 103.748 24.7994 103.913 25.7072C104.077 26.6151 104.292 27.3351 104.557 27.8672C104.823 28.3994 105.136 28.7672 105.495 28.9707C105.855 29.1742 106.222 29.2759 106.597 29.2759C106.972 29.2759 107.339 29.1742 107.699 28.9707C108.058 28.7672 108.371 28.3994 108.637 27.8672C108.902 27.3351 109.117 26.6151 109.281 25.7072C109.445 24.7994 109.528 23.6411 109.528 22.2324C109.528 20.8238 109.445 19.6655 109.281 18.7577ZM96.6329 22.9368H91.7095V30.4498H89.5995V14.0151H91.7095V21.2933H96.6329V14.0151H98.7429V30.4498H96.6329V22.9368ZM85.4974 30.4498L82.5668 23.4064L79.6362 30.4498H77.5262L81.0429 21.9977L77.8779 14.0151H79.9879L82.5668 20.589L85.1458 14.0151H87.2558L84.0907 21.9977L87.6075 30.4498H85.4974ZM68.2655 14.0151H76.2367V15.6585H70.3756V21.0585H75.5334V22.702H70.3756V28.8064H76.2367V30.4498H68.2655V14.0151ZM62.6388 30.4498H60.5287V15.6585H56.7776V14.0151H66.3899V15.6585H62.6388V30.4498Z" fill="white"/>
</svg>

<svg width="220" height="50" viewBox="0 0 220 50" fill="none" xmlns="http://www.w3.org/2000/svg"><path fill="#EE3643" d="M0 0h220v50H0z"/><path fill="#B52933" d="M0 45h220v5H0z"/><path fill-rule="evenodd" clip-rule="evenodd" d="M159.7 15.66v14.79h-2.11v-14.8h-3.75v-1.63h9.61v1.64h-3.75Zm-8.12 8.7c-.37.46-.83.79-1.39.98-.55.2-1.21.3-1.98.3a11.98 11.98 0 0 1-2.34-.24v5.05h-2.11v-16.2c.6-.17 1.19-.3 1.79-.36.6-.07 1.25-.11 1.96-.11.94 0 1.73.1 2.39.3.66.19 1.19.51 1.6.97.4.45.7 1.05.88 1.8.2.76.29 1.69.29 2.8 0 1.14-.1 2.1-.27 2.86a4.61 4.61 0 0 1-.82 1.85Zm-1.2-6.82a3.3 3.3 0 0 0-.55-1.34 2 2 0 0 0-.95-.7 4.2 4.2 0 0 0-1.37-.2h-1.64V24h1.64c.53 0 .99-.07 1.37-.2a2 2 0 0 0 .95-.7c.25-.33.43-.77.55-1.34.12-.56.18-1.26.18-2.11 0-.85-.06-1.55-.18-2.11Zm-11.9 8.68h-4.69l-1.05 4.23h-2.11l3.98-16.43h3.05l3.99 16.43h-2.11l-1.06-4.23Zm-2.3-9.86h-.09l-1.94 8.22h3.98l-1.95-8.22Zm-10.12 1.88h-.12l-3.4 10.1h-2.11l-3.4-10.1h-.12l-.7 12.21h-2.11l.94-16.43h2.58l3.82 11.26h.1l3.81-11.26h2.58l.94 16.43h-2.11l-.7-12.2ZM110.3 28.92c-.44.65-.96 1.1-1.58 1.37-.62.26-1.33.4-2.12.4-.8 0-1.5-.14-2.13-.4a3.68 3.68 0 0 1-1.58-1.37 7.22 7.22 0 0 1-1-2.6 20.63 20.63 0 0 1-.33-4.09c0-1.64.11-3 .34-4.1a7.22 7.22 0 0 1 1-2.59c.43-.64.96-1.1 1.57-1.36.62-.27 1.33-.4 2.13-.4.8 0 1.5.13 2.12.4.62.27 1.14.72 1.58 1.36.44.64.77 1.5 1 2.6.22 1.08.34 2.45.34 4.1 0 1.64-.12 3-.34 4.09a7.22 7.22 0 0 1-1 2.6Zm-1.02-10.16a8.23 8.23 0 0 0-.64-2.16 2.5 2.5 0 0 0-.94-1.1c-.36-.2-.73-.31-1.1-.31-.38 0-.74.1-1.1.3-.36.2-.68.58-.94 1.1a8.23 8.23 0 0 0-.65 2.17c-.16.9-.24 2.06-.24 3.47 0 1.41.08 2.57.24 3.48.17.9.38 1.63.65 2.16.26.53.58.9.94 1.1.36.2.72.3 1.1.3.37 0 .74-.1 1.1-.3.36-.2.67-.57.94-1.1.26-.53.48-1.25.64-2.16.16-.91.25-2.07.25-3.48 0-1.4-.09-2.56-.25-3.47Zm-12.65 4.18h-4.92v7.51H89.6V14.02h2.11v7.27h4.92v-7.27h2.11v16.43h-2.1v-7.51ZM85.5 30.45l-2.93-7.04-2.93 7.04h-2.11L81.04 22l-3.16-7.98h2.1l2.59 6.57 2.58-6.57h2.1L84.1 22l3.52 8.45H85.5ZM68.27 14.02h7.97v1.64h-5.86v5.4h5.15v1.64h-5.15v6.1h5.86v1.65h-7.97V14.02Zm-5.63 16.43h-2.11v-14.8h-3.75v-1.63h9.61v1.64h-3.75v14.79Z" fill="#fff"/></svg>
